X:726
T:Reel 726
M:4/4
K:Dmaj
L:1/8
AG|FDEC A,DD2| (3FGA Bc dcd2|FDFD A,DFD||EDEF E2AG:||2EDEF G2Bc| (3dcB AF  (3BcB AF| (3BcB AF E2FG|ABce dBAF|GEFD E2FA| (3BcB AF G2GA|BcBe B2A2| (3ded  (3cBA Bd (3cec |dBAG F2ED|
